src/view/frontend/web/svg/heroicons/solid/calculator.svg

<svg viewBox="0 0 20 20" fill="currentColor" xmlns="http://www.w3.org/2000/svg">
<path fill-rule="evenodd" clip-rule="evenodd" d="M6 2C4.89543 2 4 2.89543 4 4V16C4 17.1046 4.89543 18 6 18H14C15.1046 18 16 17.1046 16 16V4C16 2.89543 15.1046 2 14 2H6ZM7 4C6.44772 4 6 4.44772 6 5C6 5.55228 6.44772 6 7 6H13C13.5523 6 14 5.55228 14 5C14 4.44772 13.5523 4 13 4H7ZM13 11C13.5523 11 14 11.4477 14 12V15C14 15.5523 13.5523 16 13 16C12.4477 16 12 15.5523 12 15V12C12 11.4477 12.4477 11 13 11ZM10 14C9.44772 14 9 14.4477 9 15C9 15.5523 9.44772 16 10 16H10.01C10.5623 16 11.01 15.5523 11.01 15C11.01 14.4477 10.5623 14 10.01 14H10ZM6 15C6 14.4477 6.44772 14 7 14H7.01C7.56228 14 8.01 14.4477 8.01 15C8.01 15.5523 7.56228 16 7.01 16H7C6.44772 16 6 15.5523 6 15ZM7 11C6.44772 11 6 11.4477 6 12C6 12.5523 6.44772 13 7 13H7.01C7.56228 13 8.01 12.5523 8.01 12C8.01 11.4477 7.56228 11 7.01 11H7ZM9 12C9 11.4477 9.44772 11 10 11H10.01C10.5623 11 11.01 11.4477 11.01 12C11.01 12.5523 10.5623 13 10.01 13H10C9.44772 13 9 12.5523 9 12ZM13 8C12.4477 8 12 8.44772 12 9C12 9.55228 12.4477 10 13 10H13.01C13.5623 10 14.01 9.55228 14.01 9C14.01 8.44772 13.5623 8 13.01 8H13ZM9 9C9 8.44772 9.44772 8 10 8H10.01C10.5623 8 11.01 8.44772 11.01 9C11.01 9.55228 10.5623 10 10.01 10H10C9.44772 10 9 9.55228 9 9ZM7 8C6.44772 8 6 8.44772 6 9C6 9.55228 6.44772 10 7 10H7.01C7.56228 10 8.01 9.55228 8.01 9C8.01 8.44772 7.56228 8 7.01 8H7Z" />
</svg>

<svg xmlns="http://www.w3.org/2000/svg" viewBox="0 0 20 20" fill="currentColor">
  <path fill-rule="evenodd" d="M6 2a2 2 0 00-2 2v12a2 2 0 002 2h8a2 2 0 002-2V4a2 2 0 00-2-2H6zm1 2a1 1 0 000 2h6a1 1 0 100-2H7zm6 7a1 1 0 011 1v3a1 1 0 11-2 0v-3a1 1 0 011-1zm-3 3a1 1 0 100 2h.01a1 1 0 100-2H10zm-4 1a1 1 0 011-1h.01a1 1 0 110 2H7a1 1 0 01-1-1zm1-4a1 1 0 100 2h.01a1 1 0 100-2H7zm2 1a1 1 0 011-1h.01a1 1 0 110 2H10a1 1 0 01-1-1zm4-4a1 1 0 100 2h.01a1 1 0 100-2H13zM9 9a1 1 0 011-1h.01a1 1 0 110 2H10a1 1 0 01-1-1zM7 8a1 1 0 000 2h.01a1 1 0 000-2H7z" clip-rule="evenodd"/>
</svg>
